X: 35984
T: Sarsfield's March
R: polka
M: 2/4
K: Dmajor
B,A,||D2 DD|D2 DD|ED EF|GF EF|D2 DD|DF Ad|cA GE|F2 FE|
D2 B,A,|D2 B,A,|ED EF|GF EF|GA Bc|d2 AG|F2 D2|D2:|
A||AB cd|cB AF|AB cd|B2 AF|AB dB|AF ED|F2 E2|E2 EF|
G2 GA|Bc d2|F2 ED|D3 D|GB dB|AF ED|E2 D2|D3:|

